X:1
T: Cairngorum
C:
R:Reel
Q: 232
K:D
M:4/4
L:1/8
|:B|A3/2D1/2 ((3FED) d3/2D1/2 ((3FED) |EB BA BE Ed|A3/2D1/2 ((3FED) dg fe|dB AF AD DB|
A3/2D1/2 ((3FED) d3/2D1/2 ((3FED) |EB BA BE Ed|A3/2D1/2 ((3FED) dg fe|dB AF AD Df|
ab af de fd|eb ba be ef|ab af de fe|dB AF AD Df|
ab af de fd|eb ba be ef|ab af dg fe|dB AF AD D:|
